dist/images/ico/ico_special_01.svg

<svg width="18" height="18" fill="none" xmlns="http://www.w3.org/2000/svg"><path d="M12 8.058V3H6v5.058c0 .21.108.408.294.516l2.508 1.506-.594 1.404-2.046.174 1.554 1.344L7.242 15 9 13.938 10.758 15l-.468-1.998 1.554-1.344-2.046-.174-.594-1.404 2.508-1.506c.18-.108.288-.3.288-.516zm-2.4 1.08l-.6.36-.6-.36V3.6h1.2v5.538z" fill="#ECC600"/></svg>

<svg width="18" height="18" viewBox="0 0 18 18" fill="none" xmlns="http://www.w3.org/2000/svg">
<path d="M12 8.058V3H6V8.058C6 8.268 6.108 8.466 6.294 8.574L8.802 10.08L8.208 11.484L6.162 11.658L7.716 13.002L7.242 15L9 13.938L10.758 15L10.29 13.002L11.844 11.658L9.798 11.484L9.204 10.08L11.712 8.574C11.892 8.466 12 8.274 12 8.058ZM9.6 9.138L9 9.498L8.4 9.138V3.6H9.6V9.138Z" fill="#ECC600"/>
</svg>
